icons/modern/scroll.svg

<svg width="32" height="32" viewBox="0 0 32 32" fill="none" xmlns="http://www.w3.org/2000/svg">
<g filter="url(#filter0_ii_18_21056)">
<path d="M7.39062 27.0234C7.39062 28.6803 8.73377 30.0234 10.3906 30.0234H27.2422V4.97656C27.2422 3.31971 25.899 1.97656 24.2422 1.97656H4.84375H4.75781V1.97798C4.78635 1.97704 4.815 1.97656 4.84375 1.97656C6.25034 1.97656 7.39062 3.11684 7.39062 4.52344V27.0234Z" fill="url(#paint0_linear_18_21056)"/>
<path d="M7.39062 27.0234C7.39062 28.6803 8.73377 30.0234 10.3906 30.0234H27.2422V4.97656C27.2422 3.31971 25.899 1.97656 24.2422 1.97656H4.84375H4.75781V1.97798C4.78635 1.97704 4.815 1.97656 4.84375 1.97656C6.25034 1.97656 7.39062 3.11684 7.39062 4.52344V27.0234Z" fill="url(#paint1_linear_18_21056)"/>
<path d="M7.39062 27.0234C7.39062 28.6803 8.73377 30.0234 10.3906 30.0234H27.2422V4.97656C27.2422 3.31971 25.899 1.97656 24.2422 1.97656H4.84375H4.75781V1.97798C4.78635 1.97704 4.815 1.97656 4.84375 1.97656C6.25034 1.97656 7.39062 3.11684 7.39062 4.52344V27.0234Z" fill="url(#paint2_linear_18_21056)"/>
<path d="M7.39062 27.0234C7.39062 28.6803 8.73377 30.0234 10.3906 30.0234H27.2422V4.97656C27.2422 3.31971 25.899 1.97656 24.2422 1.97656H4.84375H4.75781V1.97798C4.78635 1.97704 4.815 1.97656 4.84375 1.97656C6.25034 1.97656 7.39062 3.11684 7.39062 4.52344V27.0234Z" fill="url(#paint3_radial_18_21056)"/>
<path d="M7.39062 27.0234C7.39062 28.6803 8.73377 30.0234 10.3906 30.0234H27.2422V4.97656C27.2422 3.31971 25.899 1.97656 24.2422 1.97656H4.84375H4.75781V1.97798C4.78635 1.97704 4.815 1.97656 4.84375 1.97656C6.25034 1.97656 7.39062 3.11684 7.39062 4.52344V27.0234Z" fill="url(#paint4_radial_18_21056)"/>
</g>
<g filter="url(#filter1_i_18_21056)">
<path d="M4.84375 1.97656C3.43716 1.97656 2.29688 3.11684 2.29688 4.52344V5.22813C2.29688 5.28335 2.34165 5.32812 2.39688 5.32812H7.39062V4.52344C7.39062 3.11684 6.25034 1.97656 4.84375 1.97656Z" fill="url(#paint5_radial_18_21056)"/>
</g>
<g filter="url(#filter2_i_18_21056)">
<path d="M14.2578 27.1641C14.1198 27.1641 14.0078 27.276 14.0078 27.4141V27.4264L14.0039 27.4258C13.9305 29.0173 12.6449 30.0234 11.0352 30.0234H27.5174C29.0395 30.0234 30.2734 28.7895 30.2734 27.2674C30.2734 27.2103 30.2272 27.1641 30.1701 27.1641H14.2578Z" fill="url(#paint6_linear_18_21056)"/>
<path d="M14.2578 27.1641C14.1198 27.1641 14.0078 27.276 14.0078 27.4141V27.4264L14.0039 27.4258C13.9305 29.0173 12.6449 30.0234 11.0352 30.0234H27.5174C29.0395 30.0234 30.2734 28.7895 30.2734 27.2674C30.2734 27.2103 30.2272 27.1641 30.1701 27.1641H14.2578Z" fill="url(#paint7_linear_18_21056)"/>
</g>
<g filter="url(#filter3_ii_18_21056)">
<rect x="10.25" y="12.1133" width="13.9062" height="1.01172" rx="0.505859" fill="url(#paint8_linear_18_21056)"/>
</g>
<g filter="url(#filter4_ii_18_21056)">
<rect x="10.25" y="15.1055" width="13.9062" height="1.01172" rx="0.505859" fill="url(#paint9_linear_18_21056)"/>
</g>
<g filter="url(#filter5_ii_18_21056)">
<rect x="10.25" y="18.0977" width="13.9062" height="1.01172" rx="0.505859" fill="url(#paint10_linear_18_21056)"/>
</g>
<g filter="url(#filter6_ii_18_21056)">
<rect x="10.25" y="21.0898" width="9.00781" height="1.01172" rx="0.505859" fill="url(#paint11_linear_18_21056)"/>
</g>
<defs>
<filter id="filter0_ii_18_21056" x="4.65781" y="1.87656" width="22.6844" height="28.1469" filterUnits="userSpaceOnUse" color-interpolation-filters="sRGB">
<feFlood flood-opacity="0" result="BackgroundImageFix"/>
<feBlend mode="normal" in="SourceGraphic" in2="BackgroundImageFix" result="shape"/>
<feColorMatrix in="SourceAlpha" type="matrix" values="0 0 0 0 0 0 0 0 0 0 0 0 0 0 0 0 0 0 127 0" result="hardAlpha"/>
<feOffset dx="-0.1"/>
<feGaussianBlur stdDeviation="0.125"/>
<feComposite in2="hardAlpha" operator="arithmetic" k2="-1" k3="1"/>
<feColorMatrix type="matrix" values="0 0 0 0 0.996078 0 0 0 0 0.917647 0 0 0 0 0.592157 0 0 0 1 0"/>
<feBlend mode="normal" in2="shape" result="effect1_innerShadow_18_21056"/>
<feColorMatrix in="SourceAlpha" type="matrix" values="0 0 0 0 0 0 0 0 0 0 0 0 0 0 0 0 0 0 127 0" result="hardAlpha"/>
<feOffset dx="0.1" dy="-0.1"/>
<feGaussianBlur stdDeviation="0.125"/>
<feComposite in2="hardAlpha" operator="arithmetic" k2="-1" k3="1"/>
<feColorMatrix type="matrix" values="0 0 0 0 0.866667 0 0 0 0 0.627451 0 0 0 0 0.498039 0 0 0 1 0"/>
<feBlend mode="normal" in2="effect1_innerShadow_18_21056" result="effect2_innerShadow_18_21056"/>
</filter>
<filter id="filter1_i_18_21056" x="2.29688" y="1.97656" width="5.14375" height="3.40156" filterUnits="userSpaceOnUse" color-interpolation-filters="sRGB">
<feFlood flood-opacity="0" result="BackgroundImageFix"/>
<feBlend mode="normal" in="SourceGraphic" in2="BackgroundImageFix" result="shape"/>
<feColorMatrix in="SourceAlpha" type="matrix" values="0 0 0 0 0 0 0 0 0 0 0 0 0 0 0 0 0 0 127 0" result="hardAlpha"/>
<feOffset dx="0.05" dy="0.05"/>
<feGaussianBlur stdDeviation="0.05"/>
<feComposite in2="hardAlpha" operator="arithmetic" k2="-1" k3="1"/>
<feColorMatrix type="matrix" values="0 0 0 0 0.807843 0 0 0 0 0.494118 0 0 0 0 0.411765 0 0 0 1 0"/>
<feBlend mode="normal" in2="shape" result="effect1_innerShadow_18_21056"/>
</filter>
<filter id="filter2_i_18_21056" x="11.0352" y="27.1641" width="19.3383" height="2.85938" filterUnits="userSpaceOnUse" color-interpolation-filters="sRGB">
<feFlood flood-opacity="0" result="BackgroundImageFix"/>
<feBlend mode="normal" in="SourceGraphic" in2="BackgroundImageFix" result="shape"/>
<feColorMatrix in="SourceAlpha" type="matrix" values="0 0 0 0 0 0 0 0 0 0 0 0 0 0 0 0 0 0 127 0" result="hardAlpha"/>
<feOffset dx="0.1"/>
<feGaussianBlur stdDeviation="0.1"/>
<feComposite in2="hardAlpha" operator="arithmetic" k2="-1" k3="1"/>
<feColorMatrix type="matrix" values="0 0 0 0 0.72549 0 0 0 0 0.427451 0 0 0 0 0.203922 0 0 0 1 0"/>
<feBlend mode="normal" in2="shape" result="effect1_innerShadow_18_21056"/>
</filter>
<filter id="filter3_ii_18_21056" x="10.2" y="12.0633" width="14.0063" height="1.11172" filterUnits="userSpaceOnUse" color-interpolation-filters="sRGB">
<feFlood flood-opacity="0" result="BackgroundImageFix"/>
<feBlend mode="normal" in="SourceGraphic" in2="BackgroundImageFix" result="shape"/>
<feColorMatrix in="SourceAlpha" type="matrix" values="0 0 0 0 0 0 0 0 0 0 0 0 0 0 0 0 0 0 127 0" result="hardAlpha"/>
<feOffset dx="0.05" dy="-0.05"/>
<feGaussianBlur stdDeviation="0.025"/>
<feComposite in2="hardAlpha" operator="arithmetic" k2="-1" k3="1"/>
<feColorMatrix type="matrix" values="0 0 0 0 0.721569 0 0 0 0 0.384314 0 0 0 0 0.262745 0 0 0 1 0"/>
<feBlend mode="normal" in2="shape" result="effect1_innerShadow_18_21056"/>
<feColorMatrix in="SourceAlpha" type="matrix" values="0 0 0 0 0 0 0 0 0 0 0 0 0 0 0 0 0 0 127 0" result="hardAlpha"/>
<feOffset dx="-0.05" dy="0.05"/>
<feGaussianBlur stdDeviation="0.025"/>
<feComposite in2="hardAlpha" operator="arithmetic" k2="-1" k3="1"/>
<feColorMatrix type="matrix" values="0 0 0 0 0.972549 0 0 0 0 0.635294 0 0 0 0 0.380392 0 0 0 1 0"/>
<feBlend mode="normal" in2="effect1_innerShadow_18_21056" result="effect2_innerShadow_18_21056"/>
</filter>
<filter id="filter4_ii_18_21056" x="10.2" y="15.0555" width="14.0063" height="1.11172" filterUnits="userSpaceOnUse" color-interpolation-filters="sRGB">
<feFlood flood-opacity="0" result="BackgroundImageFix"/>
<feBlend mode="normal" in="SourceGraphic" in2="BackgroundImageFix" result="shape"/>
<feColorMatrix in="SourceAlpha" type="matrix" values="0 0 0 0 0 0 0 0 0 0 0 0 0 0 0 0 0 0 127 0" result="hardAlpha"/>
<feOffset dx="0.05" dy="-0.05"/>
<feGaussianBlur stdDeviation="0.025"/>
<feComposite in2="hardAlpha" operator="arithmetic" k2="-1" k3="1"/>
<feColorMatrix type="matrix" values="0 0 0 0 0.721569 0 0 0 0 0.384314 0 0 0 0 0.262745 0 0 0 1 0"/>
<feBlend mode="normal" in2="shape" result="effect1_innerShadow_18_21056"/>
<feColorMatrix in="SourceAlpha" type="matrix" values="0 0 0 0 0 0 0 0 0 0 0 0 0 0 0 0 0 0 127 0" result="hardAlpha"/>
<feOffset dx="-0.05" dy="0.05"/>
<feGaussianBlur stdDeviation="0.025"/>
<feComposite in2="hardAlpha" operator="arithmetic" k2="-1" k3="1"/>
<feColorMatrix type="matrix" values="0 0 0 0 0.972549 0 0 0 0 0.635294 0 0 0 0 0.380392 0 0 0 1 0"/>
<feBlend mode="normal" in2="effect1_innerShadow_18_21056" result="effect2_innerShadow_18_21056"/>
</filter>
<filter id="filter5_ii_18_21056" x="10.2" y="18.0477" width="14.0063" height="1.11172" filterUnits="userSpaceOnUse" color-interpolation-filters="sRGB">
<feFlood flood-opacity="0" result="BackgroundImageFix"/>
<feBlend mode="normal" in="SourceGraphic" in2="BackgroundImageFix" result="shape"/>
<feColorMatrix in="SourceAlpha" type="matrix" values="0 0 0 0 0 0 0 0 0 0 0 0 0 0 0 0 0 0 127 0" result="hardAlpha"/>
<feOffset dx="0.05" dy="-0.05"/>
<feGaussianBlur stdDeviation="0.025"/>
<feComposite in2="hardAlpha" operator="arithmetic" k2="-1" k3="1"/>
<feColorMatrix type="matrix" values="0 0 0 0 0.721569 0 0 0 0 0.384314 0 0 0 0 0.262745 0 0 0 1 0"/>
<feBlend mode="normal" in2="shape" result="effect1_innerShadow_18_21056"/>
<feColorMatrix in="SourceAlpha" type="matrix" values="0 0 0 0 0 0 0 0 0 0 0 0 0 0 0 0 0 0 127 0" result="hardAlpha"/>
<feOffset dx="-0.05" dy="0.05"/>
<feGaussianBlur stdDeviation="0.025"/>
<feComposite in2="hardAlpha" operator="arithmetic" k2="-1" k3="1"/>
<feColorMatrix type="matrix" values="0 0 0 0 0.972549 0 0 0 0 0.635294 0 0 0 0 0.380392 0 0 0 1 0"/>
<feBlend mode="normal" in2="effect1_innerShadow_18_21056" result="effect2_innerShadow_18_21056"/>
</filter>
<filter id="filter6_ii_18_21056" x="10.2" y="21.0398" width="9.10781" height="1.11172" filterUnits="userSpaceOnUse" color-interpolation-filters="sRGB">
<feFlood flood-opacity="0" result="BackgroundImageFix"/>
<feBlend mode="normal" in="SourceGraphic" in2="BackgroundImageFix" result="shape"/>
<feColorMatrix in="SourceAlpha" type="matrix" values="0 0 0 0 0 0 0 0 0 0 0 0 0 0 0 0 0 0 127 0" result="hardAlpha"/>
<feOffset dx="0.05" dy="-0.05"/>
<feGaussianBlur stdDeviation="0.025"/>
<feComposite in2="hardAlpha" operator="arithmetic" k2="-1" k3="1"/>
<feColorMatrix type="matrix" values="0 0 0 0 0.721569 0 0 0 0 0.384314 0 0 0 0 0.262745 0 0 0 1 0"/>
<feBlend mode="normal" in2="shape" result="effect1_innerShadow_18_21056"/>
<feColorMatrix in="SourceAlpha" type="matrix" values="0 0 0 0 0 0 0 0 0 0 0 0 0 0 0 0 0 0 127 0" result="hardAlpha"/>
<feOffset dx="-0.05" dy="0.05"/>
<feGaussianBlur stdDeviation="0.025"/>
<feComposite in2="hardAlpha" operator="arithmetic" k2="-1" k3="1"/>
<feColorMatrix type="matrix" values="0 0 0 0 0.972549 0 0 0 0 0.635294 0 0 0 0 0.380392 0 0 0 1 0"/>
<feBlend mode="normal" in2="effect1_innerShadow_18_21056" result="effect2_innerShadow_18_21056"/>
</filter>
<linearGradient id="paint0_linear_18_21056" x1="8.99729" y1="16" x2="24.7109" y2="21.4297" gradientUnits="userSpaceOnUse">
<stop stop-color="#FFBF82"/>
<stop offset="0.736387" stop-color="#FFD8A3"/>
</linearGradient>
<linearGradient id="paint1_linear_18_21056" x1="16" y1="1.97656" x2="16" y2="8.67969" gradientUnits="userSpaceOnUse">
<stop stop-color="#FFD27C"/>
<stop offset="1" stop-color="#FFD27C" stop-opacity="0"/>
</linearGradient>
<linearGradient id="paint2_linear_18_21056" x1="16" y1="1.67969" x2="16" y2="3.42969" gradientUnits="userSpaceOnUse">
<stop stop-color="#F9B76C"/>
<stop offset="1" stop-color="#FFC573" stop-opacity="0"/>
</linearGradient>
<radialGradient id="paint3_radial_18_21056" cx="0" cy="0" r="1" gradientUnits="userSpaceOnUse" gradientTransform="translate(11.7668 30.0234) rotate(-90) scale(3.12594 5.10625)">
<stop stop-color="#FFDA8D"/>
<stop offset="1" stop-color="#FFDA8D" stop-opacity="0"/>
</radialGradient>
<radialGradient id="paint4_radial_18_21056" cx="0" cy="0" r="1" gradientUnits="userSpaceOnUse" gradientTransform="translate(21.8731 27.8693) rotate(-90) scale(2.76952 20.9414)">
<stop stop-color="#FFDD93"/>
<stop offset="1" stop-color="#FFDD93" stop-opacity="0"/>
</radialGradient>
<radialGradient id="paint5_radial_18_21056" cx="0" cy="0" r="1" gradientUnits="userSpaceOnUse" gradientTransform="translate(2.55469 5.32813) scale(3.90625 5.93677)">
<stop stop-color="#EB9160"/>
<stop offset="1" stop-color="#C36241"/>
</radialGradient>
<linearGradient id="paint6_linear_18_21056" x1="20.6543" y1="27.1641" x2="20.6543" y2="30.0234" gradientUnits="userSpaceOnUse">
<stop stop-color="#E58F4F"/>
<stop offset="1" stop-color="#EE9880"/>
</linearGradient>
<linearGradient id="paint7_linear_18_21056" x1="18.4609" y1="30.0234" x2="18.4609" y2="29.1172" gradientUnits="userSpaceOnUse">
<stop stop-color="#E07E98"/>
<stop offset="1" stop-color="#E07E98" stop-opacity="0"/>
</linearGradient>
<linearGradient id="paint8_linear_18_21056" x1="10.4297" y1="12.8984" x2="22.9609" y2="12.8984" gradientUnits="userSpaceOnUse">
<stop stop-color="#D37E48"/>
<stop offset="1" stop-color="#DE8650"/>
</linearGradient>
<linearGradient id="paint9_linear_18_21056" x1="10.4297" y1="15.8906" x2="22.9609" y2="15.8906" gradientUnits="userSpaceOnUse">
<stop stop-color="#D37E48"/>
<stop offset="1" stop-color="#DE8650"/>
</linearGradient>
<linearGradient id="paint10_linear_18_21056" x1="10.4297" y1="18.8828" x2="22.9609" y2="18.8828" gradientUnits="userSpaceOnUse">
<stop stop-color="#D37E48"/>
<stop offset="1" stop-color="#DE8650"/>
</linearGradient>
<linearGradient id="paint11_linear_18_21056" x1="10.3664" y1="21.875" x2="18.4835" y2="21.875" gradientUnits="userSpaceOnUse">
<stop stop-color="#D37E48"/>
<stop offset="1" stop-color="#DE8650"/>
</linearGradient>
</defs>
</svg>

<svg width="32" height="32" fill="none" xmlns="http://www.w3.org/2000/svg"><g filter="url(#a)"><path d="M7.39 27.023a3 3 0 0 0 3 3h16.852V4.977a3 3 0 0 0-3-3H4.758v.001l.086-.001A2.547 2.547 0 0 1 7.39 4.523v22.5Z" fill="url(#b)"/><path d="M7.39 27.023a3 3 0 0 0 3 3h16.852V4.977a3 3 0 0 0-3-3H4.758v.001l.086-.001A2.547 2.547 0 0 1 7.39 4.523v22.5Z" fill="url(#c)"/><path d="M7.39 27.023a3 3 0 0 0 3 3h16.852V4.977a3 3 0 0 0-3-3H4.758v.001l.086-.001A2.547 2.547 0 0 1 7.39 4.523v22.5Z" fill="url(#d)"/><path d="M7.39 27.023a3 3 0 0 0 3 3h16.852V4.977a3 3 0 0 0-3-3H4.758v.001l.086-.001A2.547 2.547 0 0 1 7.39 4.523v22.5Z" fill="url(#e)"/><path d="M7.39 27.023a3 3 0 0 0 3 3h16.852V4.977a3 3 0 0 0-3-3H4.758v.001l.086-.001A2.547 2.547 0 0 1 7.39 4.523v22.5Z" fill="url(#f)"/></g><g filter="url(#g)"><path d="M4.844 1.977a2.547 2.547 0 0 0-2.547 2.546v.705a.1.1 0 0 0 .1.1H7.39v-.805a2.547 2.547 0 0 0-2.547-2.546Z" fill="url(#h)"/></g><g filter="url(#i)"><path d="M14.258 27.164a.25.25 0 0 0-.25.25v.012h-.004c-.073 1.591-1.36 2.597-2.969 2.597h16.482a2.756 2.756 0 0 0 2.756-2.756.103.103 0 0 0-.103-.103H14.258Z" fill="url(#j)"/><path d="M14.258 27.164a.25.25 0 0 0-.25.25v.012h-.004c-.073 1.591-1.36 2.597-2.969 2.597h16.482a2.756 2.756 0 0 0 2.756-2.756.103.103 0 0 0-.103-.103H14.258Z" fill="url(#k)"/></g><g filter="url(#l)"><rect x="10.25" y="12.113" width="13.906" height="1.012" rx=".506" fill="url(#m)"/></g><g filter="url(#n)"><rect x="10.25" y="15.105" width="13.906" height="1.012" rx=".506" fill="url(#o)"/></g><g filter="url(#p)"><rect x="10.25" y="18.098" width="13.906" height="1.012" rx=".506" fill="url(#q)"/></g><g filter="url(#r)"><rect x="10.25" y="21.09" width="9.008" height="1.012" rx=".506" fill="url(#s)"/></g><defs><linearGradient id="b" x1="8.997" y1="16" x2="24.711" y2="21.43" gradientUnits="userSpaceOnUse"><stop stop-color="#FFBF82"/><stop offset=".736" stop-color="#FFD8A3"/></linearGradient><linearGradient id="c" x1="16" y1="1.977" x2="16" y2="8.68" gradientUnits="userSpaceOnUse"><stop stop-color="#FFD27C"/><stop offset="1" stop-color="#FFD27C" stop-opacity="0"/></linearGradient><linearGradient id="d" x1="16" y1="1.68" x2="16" y2="3.43" gradientUnits="userSpaceOnUse"><stop stop-color="#F9B76C"/><stop offset="1" stop-color="#FFC573" stop-opacity="0"/></linearGradient><linearGradient id="j" x1="20.654" y1="27.164" x2="20.654" y2="30.023" gradientUnits="userSpaceOnUse"><stop stop-color="#E58F4F"/><stop offset="1" stop-color="#EE9880"/></linearGradient><linearGradient id="k" x1="18.461" y1="30.023" x2="18.461" y2="29.117" gradientUnits="userSpaceOnUse"><stop stop-color="#E07E98"/><stop offset="1" stop-color="#E07E98" stop-opacity="0"/></linearGradient><linearGradient id="m" x1="10.43" y1="12.898" x2="22.961" y2="12.898" gradientUnits="userSpaceOnUse"><stop stop-color="#D37E48"/><stop offset="1" stop-color="#DE8650"/></linearGradient><linearGradient id="o" x1="10.43" y1="15.891" x2="22.961" y2="15.891" gradientUnits="userSpaceOnUse"><stop stop-color="#D37E48"/><stop offset="1" stop-color="#DE8650"/></linearGradient><linearGradient id="q" x1="10.43" y1="18.883" x2="22.961" y2="18.883" gradientUnits="userSpaceOnUse"><stop stop-color="#D37E48"/><stop offset="1" stop-color="#DE8650"/></linearGradient><linearGradient id="s" x1="10.366" y1="21.875" x2="18.483" y2="21.875" gradientUnits="userSpaceOnUse"><stop stop-color="#D37E48"/><stop offset="1" stop-color="#DE8650"/></linearGradient><filter id="a" x="4.658" y="1.877" width="22.684" height="28.147" filterUnits="userSpaceOnUse" color-interpolation-filters="sRGB"><feFlood flood-opacity="0" result="BackgroundImageFix"/><feBlend in="SourceGraphic" in2="BackgroundImageFix" result="shape"/><feColorMatrix in="SourceAlpha" values="0 0 0 0 0 0 0 0 0 0 0 0 0 0 0 0 0 0 127 0" result="hardAlpha"/><feOffset dx="-.1"/><feGaussianBlur stdDeviation=".125"/><feComposite in2="hardAlpha" operator="arithmetic" k2="-1" k3="1"/><feColorMatrix values="0 0 0 0 0.996078 0 0 0 0 0.917647 0 0 0 0 0.592157 0 0 0 1 0"/><feBlend in2="shape" result="effect1_innerShadow_18_21056"/><feColorMatrix in="SourceAlpha" values="0 0 0 0 0 0 0 0 0 0 0 0 0 0 0 0 0 0 127 0" result="hardAlpha"/><feOffset dx=".1" dy="-.1"/><feGaussianBlur stdDeviation=".125"/><feComposite in2="hardAlpha" operator="arithmetic" k2="-1" k3="1"/><feColorMatrix values="0 0 0 0 0.866667 0 0 0 0 0.627451 0 0 0 0 0.498039 0 0 0 1 0"/><feBlend in2="effect1_innerShadow_18_21056" result="effect2_innerShadow_18_21056"/></filter><filter id="g" x="2.297" y="1.977" width="5.144" height="3.402" filterUnits="userSpaceOnUse" color-interpolation-filters="sRGB"><feFlood flood-opacity="0" result="BackgroundImageFix"/><feBlend in="SourceGraphic" in2="BackgroundImageFix" result="shape"/><feColorMatrix in="SourceAlpha" values="0 0 0 0 0 0 0 0 0 0 0 0 0 0 0 0 0 0 127 0" result="hardAlpha"/><feOffset dx=".05" dy=".05"/><feGaussianBlur stdDeviation=".05"/><feComposite in2="hardAlpha" operator="arithmetic" k2="-1" k3="1"/><feColorMatrix values="0 0 0 0 0.807843 0 0 0 0 0.494118 0 0 0 0 0.411765 0 0 0 1 0"/><feBlend in2="shape" result="effect1_innerShadow_18_21056"/></filter><filter id="i" x="11.035" y="27.164" width="19.338" height="2.859" filterUnits="userSpaceOnUse" color-interpolation-filters="sRGB"><feFlood flood-opacity="0" result="BackgroundImageFix"/><feBlend in="SourceGraphic" in2="BackgroundImageFix" result="shape"/><feColorMatrix in="SourceAlpha" values="0 0 0 0 0 0 0 0 0 0 0 0 0 0 0 0 0 0 127 0" result="hardAlpha"/><feOffset dx=".1"/><feGaussianBlur stdDeviation=".1"/><feComposite in2="hardAlpha" operator="arithmetic" k2="-1" k3="1"/><feColorMatrix values="0 0 0 0 0.72549 0 0 0 0 0.427451 0 0 0 0 0.203922 0 0 0 1 0"/><feBlend in2="shape" result="effect1_innerShadow_18_21056"/></filter><filter id="l" x="10.2" y="12.063" width="14.006" height="1.112" filterUnits="userSpaceOnUse" color-interpolation-filters="sRGB"><feFlood flood-opacity="0" result="BackgroundImageFix"/><feBlend in="SourceGraphic" in2="BackgroundImageFix" result="shape"/><feColorMatrix in="SourceAlpha" values="0 0 0 0 0 0 0 0 0 0 0 0 0 0 0 0 0 0 127 0" result="hardAlpha"/><feOffset dx=".05" dy="-.05"/><feGaussianBlur stdDeviation=".025"/><feComposite in2="hardAlpha" operator="arithmetic" k2="-1" k3="1"/><feColorMatrix values="0 0 0 0 0.721569 0 0 0 0 0.384314 0 0 0 0 0.262745 0 0 0 1 0"/><feBlend in2="shape" result="effect1_innerShadow_18_21056"/><feColorMatrix in="SourceAlpha" values="0 0 0 0 0 0 0 0 0 0 0 0 0 0 0 0 0 0 127 0" result="hardAlpha"/><feOffset dx="-.05" dy=".05"/><feGaussianBlur stdDeviation=".025"/><feComposite in2="hardAlpha" operator="arithmetic" k2="-1" k3="1"/><feColorMatrix values="0 0 0 0 0.972549 0 0 0 0 0.635294 0 0 0 0 0.380392 0 0 0 1 0"/><feBlend in2="effect1_innerShadow_18_21056" result="effect2_innerShadow_18_21056"/></filter><filter id="n" x="10.2" y="15.056" width="14.006" height="1.112" filterUnits="userSpaceOnUse" color-interpolation-filters="sRGB"><feFlood flood-opacity="0" result="BackgroundImageFix"/><feBlend in="SourceGraphic" in2="BackgroundImageFix" result="shape"/><feColorMatrix in="SourceAlpha" values="0 0 0 0 0 0 0 0 0 0 0 0 0 0 0 0 0 0 127 0" result="hardAlpha"/><feOffset dx=".05" dy="-.05"/><feGaussianBlur stdDeviation=".025"/><feComposite in2="hardAlpha" operator="arithmetic" k2="-1" k3="1"/><feColorMatrix values="0 0 0 0 0.721569 0 0 0 0 0.384314 0 0 0 0 0.262745 0 0 0 1 0"/><feBlend in2="shape" result="effect1_innerShadow_18_21056"/><feColorMatrix in="SourceAlpha" values="0 0 0 0 0 0 0 0 0 0 0 0 0 0 0 0 0 0 127 0" result="hardAlpha"/><feOffset dx="-.05" dy=".05"/><feGaussianBlur stdDeviation=".025"/><feComposite in2="hardAlpha" operator="arithmetic" k2="-1" k3="1"/><feColorMatrix values="0 0 0 0 0.972549 0 0 0 0 0.635294 0 0 0 0 0.380392 0 0 0 1 0"/><feBlend in2="effect1_innerShadow_18_21056" result="effect2_innerShadow_18_21056"/></filter><filter id="p" x="10.2" y="18.048" width="14.006" height="1.112" filterUnits="userSpaceOnUse" color-interpolation-filters="sRGB"><feFlood flood-opacity="0" result="BackgroundImageFix"/><feBlend in="SourceGraphic" in2="BackgroundImageFix" result="shape"/><feColorMatrix in="SourceAlpha" values="0 0 0 0 0 0 0 0 0 0 0 0 0 0 0 0 0 0 127 0" result="hardAlpha"/><feOffset dx=".05" dy="-.05"/><feGaussianBlur stdDeviation=".025"/><feComposite in2="hardAlpha" operator="arithmetic" k2="-1" k3="1"/><feColorMatrix values="0 0 0 0 0.721569 0 0 0 0 0.384314 0 0 0 0 0.262745 0 0 0 1 0"/><feBlend in2="shape" result="effect1_innerShadow_18_21056"/><feColorMatrix in="SourceAlpha" values="0 0 0 0 0 0 0 0 0 0 0 0 0 0 0 0 0 0 127 0" result="hardAlpha"/><feOffset dx="-.05" dy=".05"/><feGaussianBlur stdDeviation=".025"/><feComposite in2="hardAlpha" operator="arithmetic" k2="-1" k3="1"/><feColorMatrix values="0 0 0 0 0.972549 0 0 0 0 0.635294 0 0 0 0 0.380392 0 0 0 1 0"/><feBlend in2="effect1_innerShadow_18_21056" result="effect2_innerShadow_18_21056"/></filter><filter id="r" x="10.2" y="21.04" width="9.108" height="1.112" filterUnits="userSpaceOnUse" color-interpolation-filters="sRGB"><feFlood flood-opacity="0" result="BackgroundImageFix"/><feBlend in="SourceGraphic" in2="BackgroundImageFix" result="shape"/><feColorMatrix in="SourceAlpha" values="0 0 0 0 0 0 0 0 0 0 0 0 0 0 0 0 0 0 127 0" result="hardAlpha"/><feOffset dx=".05" dy="-.05"/><feGaussianBlur stdDeviation=".025"/><feComposite in2="hardAlpha" operator="arithmetic" k2="-1" k3="1"/><feColorMatrix values="0 0 0 0 0.721569 0 0 0 0 0.384314 0 0 0 0 0.262745 0 0 0 1 0"/><feBlend in2="shape" result="effect1_innerShadow_18_21056"/><feColorMatrix in="SourceAlpha" values="0 0 0 0 0 0 0 0 0 0 0 0 0 0 0 0 0 0 127 0" result="hardAlpha"/><feOffset dx="-.05" dy=".05"/><feGaussianBlur stdDeviation=".025"/><feComposite in2="hardAlpha" operator="arithmetic" k2="-1" k3="1"/><feColorMatrix values="0 0 0 0 0.972549 0 0 0 0 0.635294 0 0 0 0 0.380392 0 0 0 1 0"/><feBlend in2="effect1_innerShadow_18_21056" result="effect2_innerShadow_18_21056"/></filter><radialGradient id="e" cx="0" cy="0" r="1" gradientUnits="userSpaceOnUse" gradientTransform="matrix(0 -3.12594 5.10625 0 11.767 30.023)"><stop stop-color="#FFDA8D"/><stop offset="1" stop-color="#FFDA8D" stop-opacity="0"/></radialGradient><radialGradient id="f" cx="0" cy="0" r="1" gradientUnits="userSpaceOnUse" gradientTransform="matrix(0 -2.76952 20.9414 0 21.873 27.87)"><stop stop-color="#FFDD93"/><stop offset="1" stop-color="#FFDD93" stop-opacity="0"/></radialGradient><radialGradient id="h" cx="0" cy="0" r="1" gradientUnits="userSpaceOnUse" gradientTransform="matrix(3.90625 0 0 5.93677 2.555 5.328)"><stop stop-color="#EB9160"/><stop offset="1" stop-color="#C36241"/></radialGradient></defs></svg>
